!!!!SEGMENT: pl-kk--kk-i-1--022_anonim--graduale-propter-veritatem.krn
!!!cenid: 15xx:735
!!!COM: Anonim
!!!COM-rismID: pe30004985
!!!CDT:
!!!CNT:
!!!OTL: Graduale/Propter veritatem
!!!PDT:
!!!AGN:
!!!YEC: Copyright 2022 Narodowy Instytut Fryderyka Chopina (https://polishscores.org)
!!!YEM: License CC-BY-4.0 (https://creativecommons.org/licenses/by/4.0)
!!!SMS-siglum: PL-Kk
!!!SMS-shelfmark: Kk.I.1
!!!SMS-shelfwork: 022 W
!!!SMS-variant:
!!!SMS-altvar:
!!!NIFC-rismSourceID: 300257954
!!!NIFC-rismChildID: 300257976
!!!NIFC-islandoraID: pl-kk:1
!!!URL-pdf-islandora: https://repozytorium.nifc.pl/islandora/object/pl-kk%3A1/datastream/PDF/view
!!!URL-scan: https://polish.musicsources.pl/pl/lokalizacje/galeria/rekopisy/5736 @EN{Scan on Polish Music Sources Website} @PL{Skany w portalu Dziedzictwo Muzyki Polskiej w otwartym dostępie}
!!!IIIF: https://repozytorium.nifc.pl/islandora/object/pl-kk%3A1/datastream/IIIF/view
!!!ONB-nifc: UWAGA: Cantus (s. 107r-108v, skan 0109-0111), Altus (s. 102r-103v, skan 0295-0297), Tenor (s. 95r-v, skan 0485-0486), Bassus (s. 100r-102r, skan 0662-0664).
!!!OMD:
!!!AIN: 1 alto 1 bass 1 soprn 1 tenor
!!!key: F
**kern	**text	**kern	**text	**kern	**text	**kern	**text
*part4	*	*part3	*	*part2	*	*part1	*
*staff4	*	*staff3	*	*staff2	*	*staff1	*
*I"BASSVS	*	*I"TENOR	*	*I"ALTVS	*	*I"CANTVS	*
*I'B	*	*I'T	*	*I'A	*	*I'C	*
*Ibass	*	*Itenor	*	*Ialto	*	*Isoprn	*
*ICvox	*	*ICvox	*	*ICvox	*	*ICvox	*
*clefF4	*	*clefC4	*	*clefC4	*	*clefC3	*
*k[b-]	*	*k[b-]	*	*k[b-]	*	*k[b-]	*
*F:	*	*F:	*	*F:	*	*F:	*
*M2/1	*	*M2/1	*	*M2/1	*	*M2/1	*
*met(C)	*	*met(C)	*	*met(C)	*	*met(C|)	*
=1-	=1-	=1-	=1-	=1-	=1-	=1-	=1-
*lig	*	*lig	*	*	*	*	*
*xywh-#662:5964,2843,4153,881	*	*xywh-#485:5984,655,4175,766	*	*xywh-#295:6015,2168,4165,894	*	*xywh-#109:6111,721,4252,828	*
!LO:TX:b:t=Grad.:color=red	!	!LO:TX:a:t=Grad&colon;\nDe ASS&colon;\nB.Ma&colon; v&colon;	!	!	!	!	!
!	!	!	!	!LO:TX:a:t=Gra\nduale	!	!LO:TX:a:t=Gra&colon;\nDe ASS&colon;\n&colon; V &colon; M&colon;	!
1F	Prop-	1F	Prop-	0c	Prop-	2r	.
.	.	.	.	.	.	1f	Prop-
1C	.	1G	.	.	.	.	.
.	.	.	.	.	.	2e\	.
*Xlig	*	*Xlig	*	*	*	*	*
=2-	=2-	=2-	=2-	=2-	=2-	=2-	=2-
2FF/	-ter	1F	-ter	4A/	.	2f\	-ter
.	.	.	.	4G/	.	.	.
1BB-	ue-	.	.	4F/	-ter	1d	ue-
.	.	.	.	4E/	.	.	.
.	.	1F	ve-	2D,</	.	.	.
2AA/	-ri-	.	.	1F/	ue-	2c/	-ri-
=3-	=3-	=3-	=3-	=3-	=3-	=3-	=3-
*	*	*lig	*	*	*	*	*
1GG	-ta-	1G	-ri-	.	.	1B-	-ta-
.	.	.	.	2E/	-ri-	.	.
1FF	-te(m),	1A	.	4F/	-ta-	4A/	-tem,
.	.	.	.	4G/	.	4B-/	.
.	.	.	.	4A/	.	4c/	.
.	.	.	.	4B-/	.	4d/	.
*	*	*Xlig	*	*	*	*	*
=4-	=4-	=4-	=4-	=4-	=4-	=4-	=4-
*	*	*lig	*	*	*	*	*
2r	.	1A	-ta-	0c	.	2e\	.
*	*ij	*	*	*	*	*	*
2FF/	prop-	.	.	.	.	1f	.
2C/	.	1G	.	.	.	.	.
2C/	-ter	.	.	.	.	2e\	.
*	*	*Xlig	*	*	*	*	*
=5-	=5-	=5-	=5-	=5-	=5-	=5-	=5-
*	*	*lig	*	*	*	*	*
*	*	*	*	*	*	*custos:c	*
1FF	ue-	1A	.	2c,<\	-tem,	2f\	.
*	*	*	*	*	*ij	*	*ij
*	*	*	*	*	*	*xywh-#109:6075,1472,4150,876	*
!	!	!	!	!	!	!LO:LB:g=original	!
.	.	.	.	2A/	prop-	2c/	prop-
1BB-	-ri-	1F	.	1B-	-ter	2d/	-ter
.	.	.	.	.	.	2d/	ue-
*	*	*Xlig	*	*	*	*	*
=6-	=6-	=6-	=6-	=6-	=6-	=6-	=6-
*	*	*lig	*	*	*	*	*
2GG/	-ta-	1G	.	1B-	ue-	2B-/	-ri-
1BB-	.	.	.	.	.	2.d/	-ta-
*	*	*	*	*custos:A	*	*	*
.	.	1F	.	2B-\	-ri-	.	.
.	.	.	.	.	.	4c/	.
*	*	*	*	*xywh-#295:5992,2935,4171,871	*	*	*
!	!	!	!	!LO:LB:g=original	!	!	!
2C/	.	.	.	2.A/	-ta-	1c\	.
*	*	*Xlig	*	*	*	*	*
=7-	=7-	=7-	=7-	=7-	=7-	=7-	=7-
*custos:C	*	*	*	*	*	*	*
1D	.	1F	-tem,	.	.	.	.
.	.	.	.	4G/	.	.	.
.	.	.	.	1F	.	2B-/	.
*xywh-#663:1477,716,4221,773	*	*	*	*	*	*	*
!LO:PB:g=original	!	!	!	!	!	!	!
0C	.	1G	et	.	.	0c	-tem
*	*	*	*	*	*	*	*Xij
.	.	.	.	4E/	.	.	.
.	.	.	.	4D/	.	.	.
=8-	=8-	=8-	=8-	=8-	=8-	=8-	=8-
*	*	*custos:F	*	*	*	*	*
.	.	1G	man-	1E	.	.	.
*	*	*xywh-#485:5977,1380,4203,779	*	*	*	*	*
!	!	!LO:LB:g=original	!	!	!	!	!
2FF/	-te(m)	1F	-ſue-	2F,</	-tem	1c	et
*	*Xij	*	*	*	*Xij	*	*
2FF/	et	.	.	2A/	et	.	.
=9-	=9-	=9-	=9-	=9-	=9-	=9-	=9-
2BB-/	man-	1F	-tu-	2B-\	man-	2d\	man-
2AA/	-ſue-	.	.	2c\	-ſue-	2c/	.
*	*	*lig	*	*	*	*	*
1D	-tu-	1F	-di-	2c\	-tu-	2d\	-ſue-
.	.	.	.	2B-\	-di-	1f\	-tu-
=10-	=10-	=10-	=10-	=10-	=10-	=10-	=10-
1C	-di-	1G	.	1c	-ne(m),	.	.
.	.	.	.	.	.	2e\	-di-
*	*	*Xlig	*	*	*	*	*
2FF/	-ne(m),	1F	.	2r	.	2f\	-ne(m),
*	*	*	*	*	*	*	*ij
2FF/	et	.	.	2A\	et	2c/	et
=11-	=11-	=11-	=11-	=11-	=11-	=11-	=11-
1.BB-	iu-	1F	-nem,	2.B-\	iu-	2.d\	man-
.	.	.	.	4c\	.	4c/	.
*	*	*	*	*	*	*custos:c	*
.	.	1F	et	2d\	-ſti-	2B-/	.
*	*	*	*	*	*	*xywh-#109:6057,2217,4168,834	*
!	!	!	!	!	!	!LO:LB:g=original	!
2AA/	-ſti-	.	.	2c\	.	2c/	-ſue-
=12-	=12-	=12-	=12-	=12-	=12-	=12-	=12-
2BB-/	-ci-	1F	iu-	2B-/	.	2d\	-tu-
2C/	-am,	.	.	2.A/	.	1c	.
*	*	*lig	*	*	*	*	*
1D	et	1F	-ſti-	.	.	.	.
*	*	*	*	*custos:F	*	*	*
.	.	.	.	4G/	-ſti-	.	.
*	*	*	*	*xywh-#296:1408,710,4177,795	*	*	*
!	!	!	!	!LO:PB:g=original	!	!	!
.	.	.	.	1F/	.	2B-/	-di-
=13-	=13-	=13-	=13-	=13-	=13-	=13-	=13-
1C	iu-	1G	.	.	.	2c/	.
.	.	.	.	2E/	.	2c/	-ne(m)
*	*	*Xlig	*	*	*	*	*Xij
2BB-/	-ſti-	1B-	.	2F/	.	1.d	et
2GG/	-ci-	.	.	2G/	-ci-	.	.
=14-	=14-	=14-	=14-	=14-	=14-	=14-	=14-
*	*	*lig	*	*	*	*	*
1BB-	-a(m),	1B-	-ti-	0F	-am,	.	.
.	.	.	.	.	.	4c/	iu-
.	.	.	.	.	.	4B-/	.
2FF/	et	1A	.	.	.	1c	.
*custos:D	*	*	*	*	*	*	*
2F\	iu-	.	.	.	.	.	.
*	*	*Xlig	*	*	*	*	*
=15-	=15-	=15-	=15-	=15-	=15-	=15-	=15-
*	*	*lig	*	*	*	*	*
*xywh-#663:1465,1439,4226,773	*	*	*	*	*	*	*
!LO:LB:g=original	!	!	!	!	!	!	!
2D/	-ſti-	1B-	.	2r	.	2d\	.
*	*	*	*	*	*ij	*	*
2BB-/	-ti-	.	.	2F/	et	1f	-ſti-
1C	-am,	1G	.	1c	iu-	.	.
.	.	.	.	.	.	2e\	-ti-
*	*	*Xlig	*	*	*	*	*
=16-	=16-	=16-	=16-	=16-	=16-	=16-	=16-
2FF/	.	1F	.	1.c	-ſti-	1f	-am,
*	*ij	*	*	*	*	*	*
1F	et	.	.	.	.	.	.
*	*	*lig	*	*	*	*	*
.	.	1G	.	.	.	1r	.
2E\	iu-	.	.	2c\	-ci-	.	.
=17-	=17-	=17-	=17-	=17-	=17-	=17-	=17-
2D/	-ſti-	1B-	.	2.F/	-am	2r	.
*	*	*	*	*	*Xij	*	*ij
2D/	-ti-	.	.	.	.	1f	et
.	.	.	.	4G/	.	.	.
*	*	*Xlig	*	*	*	*	*
*	*	*lig	*	*	*	*	*
1C	-am	1c	.	2A/	.	.	.
*	*Xij	*	*	*	*	*	*
.	.	.	.	4G/	.	2e\	iu-
.	.	.	.	4F/	.	.	.
=18-	=18-	=18-	=18-	=18-	=18-	=18-	=18-
2r	.	1B-	.	1G	.	2d\	-ſti-
2G\	et	.	.	.	.	2d\	-ti-
*	*	*Xlig	*	*	*	*	*
*	*	*lig	*	*	*	*	*
2A\	iu-	1A	.	1r	.	1c	-am,
*	*	*	*	*	*	*	*Xij
2F\	-ſti-	.	.	.	.	.	.
=19-	=19-	=19-	=19-	=19-	=19-	=19-	=19-
*	*	*custos:c	*	*	*	*	*
*	*	*	*	*	*	*custos:d	*
1G	-ti-	1B-	.	2r	.	2r	.
*	*	*	*	*	*	*xywh-#109:6029,2923,4150,991	*
!	!	!	!	!	!	!LO:LB:g=original	!
.	.	.	.	1G	et	2d\	et
*	*	*Xlig	*	*	*	*	*
*	*	*lig	*	*	*	*	*
*	*	*xywh-#485:5950,2077,4286,828	*	*	*	*	*
!	!	!LO:LB:g=original	!	!	!	!	!
1C	-am,	1c	-am,	.	.	2e\	iu-
.	.	.	.	2A/	iu-	2c/	-ſti-
=20-	=20-	=20-	=20-	=20-	=20-	=20-	=20-
0r	.	1A	.	1F	-ſti-	1d	-ti-
*	*	*Xlig	*	*	*	*	*
*	*	*lig	*	*	*	*	*
.	.	1B-	.	1G	-ti-	2G/	-am,
*	*	*	*	*	*	*	*ij
.	.	.	.	.	.	2d\	et
=21-	=21-	=21-	=21-	=21-	=21-	=21-	=21-
*	*	*	*	*custos:C	*	*	*
2r	.	1G	.	2C/	-am	2e\	iu-
*	*	*	*	*xywh-#296:1419,1489,4148,778	*	*	*
!	!	!	!	!LO:LB:g=original	!	!	!
2C/	et	.	.	2C/	et	2c/	-ſti-
*	*	*Xlig	*	*	*	*	*
*	*	*lig	*	*	*	*	*
2BB-/	de-	1G	et	4G/	.	1d	-ti-
.	.	.	.	4A/	de-	.	.
2.GG/	-du-	.	.	4B-\	.	.	.
.	.	.	.	4c\	.	.	.
=22-	=22-	=22-	=22-	=22-	=22-	=22-	=22-
.	.	1B-	.	2d\	.	2G/	-am
*	*	*	*	*	*	*	*Xij
4AA/	.	.	.	.	.	.	.
4BB-/	.	.	.	2d\	-du-	2g\	et
*custos:D	*	*	*	*	*	*	*
4C/	.	.	.	.	.	.	.
*	*	*Xlig	*	*	*	*	*
*xywh-#663:1511,2167,4209,802	*	*	*	*	*	*	*
!LO:LB:g=original	!	!	!	!	!	!	!
1D	.	1A	.	1d	-cet	2f\	de
.	.	.	.	.	.	2.d\	du-
=23-	=23-	=23-	=23-	=23-	=23-	=23-	=23-
*	*	*lig	*	*	*	*	*
1BB-	-cet	1B-	de-	1d	te	.	.
.	.	.	.	.	.	4e\	.
.	.	.	.	.	.	4f\	.
.	.	.	.	.	.	4g\	.
2AA/	te,	1c	.	1r	.	2.a\	.
*	*ij	*	*	*	*	*	*
2A\	et	.	.	.	.	.	.
.	.	.	.	.	.	8g\L	.
.	.	.	.	.	.	8f\J	.
*	*	*Xlig	*	*	*	*	*
=24-	=24-	=24-	=24-	=24-	=24-	=24-	=24-
*	*	*	*	*	*	*custos:f	*
2A\	de-	1c	-du-	2r	.	2e\	.
*	*	*	*	*	*ij	*	*
*	*	*	*	*	*	*xywh-#110:1539,641,4142,811	*
!	!	!	!	!	!	!LO:PB:g=original	!
2F\	.	.	.	2A/	et	1f	.
*	*	*lig	*	*	*	*	*
1G	-du-	1B-	-cet	2d\	de-	.	.
.	.	.	.	1B-\	.	2e\	-cet
=25-	=25-	=25-	=25-	=25-	=25-	=25-	=25-
1F	-cet	1c	.	.	.	2f\	te
*	*	*	*	*	*	*	*ij
.	.	.	.	2A/	.	2c/	et
*	*	*Xlig	*	*	*	*	*
*	*	*lig	*	*	*	*	*
2.BB-/	te	1B-	.	2B-\	.	2d/	de-
*	*Xij	*	*	*	*	*	*
.	.	.	.	1d\	-du-	1f\	-du-
4C/	.	.	.	.	.	.	.
=26-	=26-	=26-	=26-	=26-	=26-	=26-	=26-
1D	.	1F	.	.	.	.	.
.	.	.	.	2B-\	-cet	4e\	-cet
.	.	.	.	.	.	4d\	.
*	*	*Xlig	*	*	*	*	*
2C/	.	1G	te,	2c\	te	2e\	te
*	*	*	*	*	*Xij	*	*Xij
1C/	mi-	.	.	1c\	mi-	1e\	mi-
=27-	=27-	=27-	=27-	=27-	=27-	=27-	=27-
.	.	1G	.	.	.	.	.
2BB-/	-ra-	.	.	2G/	-ra-	2d\	-ra-
*	*	*lig	*	*	*	*	*
2C/	-bi-	1G	mi-	2c\	-bi-	2e\	-bi-
*	*	*	*	*custos:d	*	*	*
2C/	-li-	.	.	2c\	-li-	2e\	-li-
=28-	=28-	=28-	=28-	=28-	=28-	=28-	=28-
*	*	*	*	*xywh-#296:1431,2256,4171,772	*	*	*
!	!	!	!	!LO:LB:g=original	!	!	!
1GG	-ter	1B-	.	1d	-ter	2d\	-ter
*	*	*	*	*	*	*	*ij
.	.	.	.	.	.	2.g\	mi-
*	*ij	*Xlig	*	*	*	*	*
2.C/	mi-	1G	.	2r	.	.	.
.	.	.	.	.	.	4f\	.
*	*	*	*	*	*ij	*	*
.	.	.	.	2.c\	mi-	4e\	.
4BB-/	.	.	.	.	.	4d/	.
=29-	=29-	=29-	=29-	=29-	=29-	=29-	=29-
4AA/	.	1A	-ra-	.	.	2c/	.
*custos:F	*	*	*	*	*	*	*
4GG/	.	.	.	4B-\	.	.	.
*	*	*	*	*	*	*custos:d	*
*xywh-#663:1541,2903,4232,813	*	*	*	*	*	*	*
!LO:LB:g=original	!	!	!	!	!	!	!
2FF/	.	.	.	4A/	.	2f\	-ra-
.	.	.	.	4G/	.	.	.
*	*	*	*	*	*	*xywh-#110:1551,1429,4165,811	*
!	!	!	!	!	!	!LO:LB:g=original	!
1BB-	-ra-	1B-	-bi-	2F/	.	2.d\	-bi-
.	.	.	.	2G/	-ra-	.	.
.	.	.	.	.	.	4e\	.
=30-	=30-	=30-	=30-	=30-	=30-	=30-	=30-
*	*	*lig	*	*	*	*	*
1AA	-bi-	1c	.	1A	-bi-	2f\	.
.	.	.	.	.	.	2e\	-li-
2BB-/	.	1B-	.	1F	-li-	1d	-ter
*	*	*	*	*	*	*	*Xij
2D/	-li-	.	.	.	.	.	.
*	*	*Xlig	*	*	*	*	*
=31-	=31-	=31-	=31-	=31-	=31-	=31-	=31-
*	*	*lig	*	*	*	*	*
1C	-ter	1c	-li-	1G	-ter	2r	.
*	*Xij	*	*	*	*Xij	*	*
.	.	.	.	.	.	2e\	mi-
*	*	*custos:B-	*	*	*	*	*
1D	mi-	1A	.	1F	.	2f\	-ra-
.	.	.	.	.	.	2.d\	-bi-
*	*	*Xlig	*	*	*	*	*
=32-	=32-	=32-	=32-	=32-	=32-	=32-	=32-
*	*	*lig	*	*	*	*	*
*	*	*xywh-#485:5964,2806,4182,897	*	*	*	*	*
!	!	!LO:LB:g=original	!	!	!	!	!
1BB-	-ra-	1B-	.	2D/	mi-	.	.
.	.	.	.	.	.	4e\	-li-
.	.	.	.	2.d\	-ra-	1f	-ter
1C	-bi-	1G	.	.	.	.	.
.	.	.	.	4c\	-bi-	.	.
.	.	.	.	1c\	-li-	2e\	.
*	*	*Xlig	*	*	*	*	*
=33-	=33-	=33-	=33-	=33-	=33-	=33-	=33-
*	*	*lig	*	*	*	*	*
1D	-li-	1F	.	.	.	2f\	.
.	.	.	.	2B-\	-ter	2f\	dex-
1C	-ter,	1G	.	2c\	.	2e\	-te-
.	.	.	.	2c\	dex-	2c/	-ra
*	*	*Xlig	*	*	*	*	*
=34-	=34-	=34-	=34-	=34-	=34-	=34-	=34-
*	*	*	*	*custos:G	*	*	*
2r	.	1G	-ter	2B-\	-te-	2d/	tu-
*	*	*	*	*xywh-#296:1471,2954,4183,1225	*	*	*
!	!	!	!	!LO:LB:g=original	!	!	!
2C/	dex-	.	.	2.G/	-ra	2e\	-a
*	*	*lig	*	*	*	*	*
2BB-/	-te-	1B-	dex-	.	.	2d\	.
.	.	.	.	4A/	.	.	.
*	*	*	*	*	*	*custos:B-	*
2.GG/	-ra	.	.	4B-\	.	2d\	dex-
.	.	.	.	4c\	.	.	.
=35-	=35-	=35-	=35-	=35-	=35-	=35-	=35-
*	*	*	*	*	*	*xywh-#110:1569,2159,4159,834	*
!	!	!	!	!	!	!LO:LB:g=original	!
.	.	1G	.	2d\	.	2B-/	-te-
4AA/	.	.	.	.	.	.	.
4BB-/	.	.	.	1d	.	2B-/	-ra
4C/	.	.	.	.	.	.	.
*	*	*Xlig	*	*	*	*	*
4D\	.	1F	.	.	.	1A	tu-
*custos:F	*	*	*	*	*	*	*
4E\	.	.	.	.	.	.	.
!LO:TX:t=P:problem=brak dalszych kilku-kilkunastu kart, na sąsiedniej karcie jest już zapis czego innego, utworu dużo późniejszego w rękopisie	!	!	!	!	!	!	!
2ryy	.	.	.	4c\	.	.	.
.	.	.	.	4B-\	tu-	.	.
=36-	=36-	=36-	=36-	=36-	=36-	=36-	=36-
0ryy	.	1G	-te-	1c	-a,	2G/	-a,
*	*	*	*	*	*	*	*ij
.	.	.	.	.	.	2g\	dex-
*	*	*lig	*	*	*	*	*
.	.	1B-	-ra	1F	.	2f\	-te-
.	.	.	.	.	.	2d\	-ra
=37-	=37-	=37-	=37-	=37-	=37-	=37-	=37-
0ryy	.	1c	.	2r	.	4e\	tu-
.	.	.	.	.	.	4f\	.
.	.	.	.	2G/	.	4g\	.
.	.	.	.	.	.	4e\	.
*	*	*Xlig	*	*	*	*	*
*	*	*lig	*	*	*	*	*
.	.	1A	.	1F	.	2f\	.
.	.	.	.	.	.	2.d\	.
=38-	=38-	=38-	=38-	=38-	=38-	=38-	=38-
0ryy	.	1B-	.	2D/	.	.	.
.	.	.	.	.	.	4e\	.
.	.	.	.	2d\	.	1f	.
*	*	*Xlig	*	*	*	*	*
*	*	*lig	*	*	*	*	*
.	.	1G	.	2c\	.	.	.
.	.	.	.	2c\	.	2e\	.
=39-	=39-	=39-	=39-	=39-	=39-	=39-	=39-
0ryy	.	1F	.	2B-\	dex-	2f\	-a
*	*	*	*	*	*	*	*Xij
.	.	.	.	1A	-te-	2c/	dex-
*	*	*Xlig	*	*	*	*	*
*	*	*lig	*	*	*	*	*
*	*	*	*	*	*	*custos:f	*
.	.	1D	.	.	.	2d/	-te-
*	*	*	*	*	*	*xywh-#110:1601,2852,4119,857	*
!	!	!	!	!	!	!LO:LB:g=original	!
.	.	.	.	2.d\	-ra	2.f\	-ra
=40-	=40-	=40-	=40-	=40-	=40-	=40-	=40-
0ryy	.	1F	.	.	.	.	.
.	.	.	.	4c\	.	4e\	.
*	*	*	*	*custos:B-	*	*	*
.	.	.	.	1c	tu-	2c/	.
*	*	*Xlig	*	*	*	*	*
*	*	*lig	*	*	*	*	*
.	.	1F	tu-	.	.	2d/	.
*	*	*	*	*xywh-#296:6106,677,4154,842	*	*	*
!	!	!	!	!LO:PB:g=original	!	!	!
.	.	.	.	2B-/	-a	1f\	.
=41-	=41-	=41-	=41-	=41-	=41-	=41-	=41-
0ryy	.	1G	.	1c	.	.	.
.	.	.	.	.	.	2e\	tu-
*	*	*Xlig	*	*	*	*	*
.	.	1F	-a	2.A/	tu-	0.f	-a
.	.	.	.	4B-\	-a	.	.
=42-	=42-	=42-	=42-	=42-	=42-	=42-	=42-
*	*	*custos:F	*	*	*	*	*
0ryy	.	0F	.	0c	.	.	.
=43-	=43-	=43-	=43-	=43-	=43-	=43-	=43-
*	*	*	*	*	*	*	*
!	!	!LO:PB:g=original	!	!	!	!	!
0ryy	.	1F	Au-	1c	Au-	1.f	Au-
.	.	1A	-di	2d\	.	.	.
.	.	.	.	2e\	.	2e\	.
=44-	=44-	=44-	=44-	=44-	=44-	=44-	=44-
*	*	*lig	*	*	*	*	*
0ryy	.	1A	fi-	1f	-di	1d	-di
.	.	1c	.	2e\	.	2c/	­ di
.	.	.	.	1E/	.	1A/	fi-
*	*	*Xlig	*	*	*	*	*
=45-	=45-	=45-	=45-	=45-	=45-	=45-	=45-
*	*	*lig	*	*	*	*	*
0ryy	.	1d	.	.	.	.	.
.	.	.	.	2D/	fi-	2G/	-li-
.	.	1c	.	1E	-li-	1A	-a
*	*	*Xlig	*	*	*	*	*
=46-	=46-	=46-	=46-	=46-	=46-	=46-	=46-
*	*	*lig	*	*	*	*	*
0ryy	.	1d	.	0D	-a	2r	.
.	.	.	.	.	.	2d\	au-
*	*	*	*	*	*	*custos:f	*
.	.	1A	.	.	.	2f\	-di
*	*	*	*	*	*	*xywh-#110:6089,772,4165,834	*
!	!	!	!	!	!	!LO:PB:g=original	!
.	.	.	.	.	.	1f\	fi-
*	*	*Xlig	*	*	*	*	*
=47-	=47-	=47-	=47-	=47-	=47-	=47-	=47-
0ryy	.	1F	.	2r	.	.	.
.	.	.	.	2A/	au-	4e\	.
.	.	.	.	.	.	4d\	.
*	*	*lig	*	*	*	*	*
*	*	*	*	*custos:c	*	*	*
.	.	1A	.	2c\	-di	2c/	.
*	*	*	*	*xywh-#296:6111,1484,4217,772	*	*	*
!	!	!	!	!LO:LB:g=original	!	!	!
.	.	.	.	1c\	fi-	2f\	.
=48-	=48-	=48-	=48-	=48-	=48-	=48-	=48-
0ryy	.	1c	.	.	.	2.e\	.
.	.	.	.	4B-\	.	.	.
.	.	.	.	4A/	.	4f\	-li-
*	*	*Xlig	*	*	*	*	*
*	*	*lig	*	*	*	*	*
.	.	1d	.	2G/	.	1g	-a,
.	.	.	.	2G/	-li-	.	.
=49-	=49-	=49-	=49-	=49-	=49-	=49-	=49-
0ryy	.	1f	.	2.F/	-a	1r	.
.	.	.	.	4G/	.	.	.
*	*	*Xlig	*	*	*	*	*
.	.	1c	.	1A	.	2r	.
*	*	*	*	*	*	*	*ij
.	.	.	.	.	.	2f\	au-
=50-	=50-	=50-	=50-	=50-	=50-	=50-	=50-
*	*	*lig	*	*	*	*	*
0ryy	.	1d	-li-	2F/	au	2d/	-di
.	.	.	.	2D/	di	2.g\	fi-
.	.	1A	.	1F	fi-	.	.
.	.	.	.	.	.	4f\	.
.	.	.	.	.	.	1f\	.
*	*	*Xlig	*	*	*	*	*
=51-	=51-	=51-	=51-	=51-	=51-	=51-	=51-
0ryy	.	1c	-a	1G	-li-	.	.
.	.	.	.	.	.	2e\	-li-
.	.	1c	.	2F/	-a	1f	-a,
*	*	*	*	*	*	*	*Xij
.	.	.	.	1A\	et	.	.
=52-	=52-	=52-	=52-	=52-	=52-	=52-	=52-
*	*	*lig	*	*	*	*	*
0ryy	.	1c	et	.	.	2r	.
.	.	.	.	2G\	ui-	1c	et
.	.	1d	.	1F	-de	.	.
.	.	.	.	.	.	2B-/	.
*	*	*Xlig	*	*	*	*	*
=53-	=53-	=53-	=53-	=53-	=53-	=53-	=53-
0ryy	.	1e	.	2r	.	2A/	ui-
*	*	*	*	*	*ij	*	*
.	.	.	.	1c	et	2G/	-de,
*	*	*	*	*	*	*custos:d	*
.	.	1f	.	.	.	2r	.
*	*	*	*	*	*	*	*ij
*	*	*	*	*	*	*xywh-#110:6072,1502,4101,764	*
!	!	!	!	!	!	!LO:LB:g=original	!
.	.	.	.	2B-\	.	2d\	et
=54-	=54-	=54-	=54-	=54-	=54-	=54-	=54-
*	*	*lig	*	*	*	*	*
0ryy	.	1d	ui-	1A	.	1.f	ui-
*	*	*	*	*custos:c	*	*	*
.	.	1c	.	1A	ui-	.	.
.	.	.	.	.	.	4e\	.
.	.	.	.	.	.	4d\	.
*	*	*Xlig	*	*	*	*	*
=55-	=55-	=55-	=55-	=55-	=55-	=55-	=55-
*	*	*lig	*	*	*	*	*
*	*	*	*	*xywh-#296:6077,2193,4258,819	*	*	*
!	!	!	!	!LO:LB:g=original	!	!	!
0ryy	.	1c	-de,	2c\	.	4e\	.
.	.	.	.	.	.	4f\	.
.	.	.	.	4G/	.	2.g\	.
.	.	.	.	4A/	.	.	.
*	*	*custos:d	*	*	*	*	*
!	!	!LO:N:acc=#	!	!LO:N:acc=#	!	!	!
!	!	!LO:TX:b:t=P:problem=# below	!	!LO:TX:a:t=P:problem=# above	!	!	!
.	.	1Bn	.	4Bn\	.	.	.
.	.	.	.	4c\	.	4f\	.
.	.	.	.	2.d\	.	4d\	.
.	.	.	.	.	.	4e\	.
*	*	*Xlig	*	*	*	*	*
=56-	=56-	=56-	=56-	=56-	=56-	=56-	=56-
*	*	*lig	*	*	*	*	*
*	*	*xywh-#486:1270,1319,4256,811	*	*	*	*	*
!	!	!LO:LB:g=original	!	!	!	!	!
0ryy	.	1d	.	.	.	2.f\	.
.	.	.	.	4c\	.	.	.
.	.	.	.	2.A/	.	.	.
.	.	.	.	.	.	4e\	.
.	.	1c	.	.	.	4c/	.
.	.	.	.	4B-y\	.	4d/	.
.	.	.	.	2c\	.	4e\	.
.	.	.	.	.	.	4f\	.
*	*	*Xlig	*	*	*	*	*
=57-	=57-	=57-	=57-	=57-	=57-	=57-	=57-
*	*	*lig	*	*	*	*	*
0ryy	.	1e	.	2G/	.	2g\	.
.	.	.	.	2c\	.	4G/	.
.	.	.	.	.	.	4A/	.
.	.	1d	.	1B-	.	4B-/	.
.	.	.	.	.	.	4c/	.
.	.	.	.	.	.	4d\	.
*	*	*	*	*	*	*custos:f	*
.	.	.	.	.	.	4e\	.
*	*	*Xlig	*	*	*	*	*
=58-	=58-	=58-	=58-	=58-	=58-	=58-	=58-
*	*	*lig	*	*	*	*	*
*	*	*	*	*	*	*xywh-#110:5985,2197,4188,886	*
!	!	!	!	!	!	!LO:LB:g=original	!
0ryy	.	1c	.	2A/	.	2f\	.
.	.	.	.	4G/	.	2e\	.
.	.	.	.	4F/	.	.	.
!	!	!LO:N:acc=#	!	!	!	!	!
!	!	!LO:TX:b:t=P:problem=# below	!	!	!	!	!
*	*	*	*	*	*	*lig	*
.	.	1Bn	.	1G	.	1d	.
*	*	*Xlig	*	*	*	*	*
=59-	=59-	=59-	=59-	=59-	=59-	=59-	=59-
*	*	*lig	*	*	*	*	*
0ryy	.	1c	.	2C/	-de	1e	.
*	*	*	*	*	*Xij	*	*
.	.	.	.	2G/	et	.	.
*	*	*	*	*	*	*Xlig	*
.	.	1A	.	2F/	in-	1d	-de,
*	*	*	*	*	*	*	*Xij
.	.	.	.	4D/	-cli-	.	.
.	.	.	.	4E/	-na	.	.
*	*	*Xlig	*	*	*	*	*
=60-	=60-	=60-	=60-	=60-	=60-	=60-	=60-
0ryy	.	1A	et	4F/	.	2r	.
*	*	*	*	*custos:A	*	*	*
.	.	.	.	4G/	.	.	.
*	*	*	*	*xywh-#296:6073,2925,4212,801	*	*	*
!	!	!	!	!LO:LB:g=original	!	!	!
.	.	.	.	2A/	.	2c/	et
*	*	*lig	*	*	*	*	*
.	.	1A	in-	1F	.	2d\	in-
.	.	.	.	.	.	1f\	-cli-
=61-	=61-	=61-	=61-	=61-	=61-	=61-	=61-
*	*	*	*	*	*ij	*	*
0ryy	.	1c	.	2G/	et	.	.
.	.	.	.	2A/	in-	2e\	.
*	*	*Xlig	*	*	*	*	*
.	.	1d	.	2B-\	-cli-	2.d\	.
.	.	.	.	4A/	.	.	.
.	.	.	.	4G/	.	4c/	.
=62-	=62-	=62-	=62-	=62-	=62-	=62-	=62-
0ryy	.	1d	-cli-	1.F	.	2B-/	.
.	.	.	.	.	.	1A	.
*	*	*lig	*	*	*	*	*
.	.	1d	-na	.	.	.	.
.	.	.	.	2D/	.	2G/	.
=63-	=63-	=63-	=63-	=63-	=63-	=63-	=63-
0ryy	.	1c	.	1E	-na	1A	-na;
*	*	*Xlig	*	*	*	*	*
*	*	*lig	*	*	*	*	*
.	.	1e	.	1A	et	2r	.
.	.	.	.	.	.	2c/	et
=64-	=64-	=64-	=64-	=64-	=64-	=64-	=64-
0ryy	.	1g	.	2G/	in-	2d/	in-
.	.	.	.	2G/	-cli-	2e\	-cli-
*	*	*Xlig	*	*	*	*	*
*	*	*lig	*	*	*	*	*
.	.	1d	.	2F/	-na	1f	-na,
.	.	.	.	2A/	et	.	.
=65-	=65-	=65-	=65-	=65-	=65-	=65-	=65-
0ryy	.	1c	.	2G/	in-	1r	.
.	.	.	.	1A	-cli-	.	.
*	*	*Xlig	*	*	*	*	*
*	*	*lig	*	*	*	*	*
*	*	*	*	*	*	*custos:c	*
.	.	1c	au-	.	.	2r	.
*	*	*	*	*	*	*xywh-#110:5977,2927,4182,857	*
!	!	!	!	!	!	!LO:LB:g=original	!
.	.	.	.	2G,</	-na	2c/	.
*	*	*	*	*	*Xij	*	*
=66-	=66-	=66-	=66-	=66-	=66-	=66-	=66-
0ryy	.	1A	.	1F	au-	2d\	.
.	.	.	.	.	.	2f\	.
*	*	*Xlig	*	*	*	*	*
.	.	1c	.	2G/	.	2e\	.
.	.	.	.	1A\	-re(m)	2f\	.
=67-	=67-	=67-	=67-	=67-	=67-	=67-	=67-
0ryy	.	1c	-rem	.	.	4c/	au-
.	.	.	.	.	.	4d/	.
.	.	.	.	4G/	tu-	4e\	.
*	*	*	*	*custos:E	*	*	*
.	.	.	.	4F/	.	4f\	.
*	*	*	*	*xywh-#297:1505,687,4136,830	*	*	*
!	!	!	!	!LO:PB:g=original	!	!	!
.	.	1c	tu-	2E/	-am,	2g\	.
*	*	*	*	*	*ij	*	*
.	.	.	.	2A/	au-	1f\	.
=68-	=68-	=68-	=68-	=68-	=68-	=68-	=68-
*	*	*lig	*	*	*	*	*
0ryy	.	1c	-am	1G	.	.	.
.	.	.	.	.	.	2e\	-rem
*	*	*custos:c	*	*	*	*	*
.	.	1A	.	2F/	-rem	2f\	tu-
.	.	.	.	2F/	tu-	2F/	-a(m)
*	*	*Xlig	*	*	*	*	*
=69-	=69-	=69-	=69-	=69-	=69-	=69-	=69-
*	*	*lig	*	*	*	*	*ij
*	*	*xywh-#486:1316,2066,4193,862	*	*	*	*	*
!	!	!LO:LB:g=original	!	!	!	!	!
0ryy	.	1c	.	1E	-am	2G/	au-
*	*	*	*	*	*Xij	*	*
.	.	.	.	.	.	1A	.
.	.	1d	.	2.D/	tu-	.	.
.	.	.	.	.	.	2G/	.
.	.	.	.	4E/	.	.	.
*	*	*Xlig	*	*	*	*	*
=70-	=70-	=70-	=70-	=70-	=70-	=70-	=70-
0ryy	.	1c	.	4F/	.	4A/	.
.	.	.	.	4G/	.	4B-/	.
.	.	.	.	1A	.	4c/	.
*	*	*	*	*	*	*custos:e	*
.	.	.	.	.	.	4d/	.
*	*	*	*	*	*	*xywh-#111:1438,629,4159,840	*
!	!	!	!	!	!	!LO:PB:g=original	!
.	.	1A	qui-	.	.	2e\	-rem
.	.	.	.	4G/	.	1d\	tu-
.	.	.	.	4F/	.	.	.
=71-	=71-	=71-	=71-	=71-	=71-	=71-	=71-
0ryy	.	1A	-a	1E	.	.	.
.	.	.	.	.	.	2c/	.
.	.	1A	con-	2D/	-am,	1d	.
.	.	.	.	2F/	qui-	.	.
=72-	=72-	=72-	=72-	=72-	=72-	=72-	=72-
*	*	*lig	*	*	*	*	*
0ryy	.	1c	-cu-	2G/	-a	2e\	-am
*	*	*	*	*	*	*	*Xij
.	.	.	.	1A	con-	2c/	qui-
.	.	1d	.	.	.	1f	-a
.	.	.	.	2A/	-cu-	.	.
*	*	*Xlig	*	*	*	*	*
=73-	=73-	=73-	=73-	=73-	=73-	=73-	=73-
0ryy	.	1d	-pi-	2.B-\	-pi-	2d/	con-
.	.	.	.	.	.	4g\	.
*	*	*	*	*custos:G	*	*	*
.	.	.	.	4A/	.	4f\	-cu-
*	*	*lig	*	*	*	*	*
*	*	*	*	*xywh-#297:1494,1447,4212,801	*	*	*
!	!	!	!	!LO:LB:g=original	!	!	!
.	.	1c	-uit	2G/	.	4e\	-pi-
.	.	.	.	.	.	4d\	.
.	.	.	.	2A/	-uit	1c\	.
=74-	=74-	=74-	=74-	=74-	=74-	=74-	=74-
0ryy	.	1d	.	1G	rex	.	.
.	.	.	.	.	.	2B-/	.
*	*	*Xlig	*	*	*	*	*
*	*	*lig	*	*	*	*	*
.	.	1c	.	2r	.	2c/	-uit
.	.	.	.	2A/	ſpe-	2f\	con-
=75-	=75-	=75-	=75-	=75-	=75-	=75-	=75-
0ryy	.	1G	.	2B-\	-ci-	2d\	.
.	.	.	.	2c\	-em	2e\	-cu-
*	*	*Xlig	*	*	*	*	*
.	.	1A	rex	1d	tu-	1f	-pi-
=76-	=76-	=76-	=76-	=76-	=76-	=76-	=76-
*	*	*lig	*	*	*	*	*
0ryy	.	1c	ſpe-	1G	-a(m)	1e	-uit
*	*	*	*	*	*ij	*	*
*	*	*	*	*	*	*custos:f	*
.	.	1A	.	2.F/	ſpe-	2d\	rex
*	*	*	*	*	*	*xywh-#111:1461,1367,4246,822	*
!	!	!	!	!	!	!LO:LB:g=original	!
.	.	.	.	.	.	2f\	ſpe-
.	.	.	.	4G/	.	.	.
*	*	*Xlig	*	*	*	*	*
=77-	=77-	=77-	=77-	=77-	=77-	=77-	=77-
0ryy	.	1c	.	2A/	.	2e\	-ci-
.	.	.	.	4G/	.	4c/	-em
.	.	.	.	4F/	.	4d/	.
*	*	*lig	*	*	*	*	*
.	.	1G	-ci-	2E/	.	4e\	.
.	.	.	.	.	.	4f\	.
.	.	.	.	2D/	.	2.g\	.
=78-	=78-	=78-	=78-	=78-	=78-	=78-	=78-
0ryy	.	1A	.	2E/	-ci-	.	.
.	.	.	.	.	.	4f\	tu-
.	.	.	.	2F/	.	1f	-am,
*	*	*Xlig	*	*	*	*	*
*	*	*lig	*	*	*	*	*
.	.	1c	-em	1G	-em	.	.
.	.	.	.	.	.	2e\	.
=79-	=79-	=79-	=79-	=79-	=79-	=79-	=79-
0ryy	.	1A	.	2.F/	tu-	0f	.
*	*	*	*	*custos:A	*	*	*
.	.	.	.	4G/	.	.	.
*	*	*Xlig	*	*	*	*	*
*	*	*	*	*xywh-#297:1523,2173,4177,825	*	*	*
!	!	!	!	!LO:LB:g=original	!	!	!
.	.	1c	.	2.A/	.	.	.
.	.	.	.	4B-\	.	.	.
=80-	=80-	=80-	=80-	=80-	=80-	=80-	=80-
*	*	*custos:F	*	*	*	*	*
0ryy	.	1G	.	1c	-am	2r	.
*	*	*	*	*	*Xij	*	*
.	.	.	.	.	.	2c/	ſpe-
*	*	*xywh-#486:1360,2835,4060,770	*	*	*	*	*
!	!	!LO:LB:g=original	!	!	!	!	!
.	.	1F	.	2r	.	2f\	-ci-
.	.	.	.	2C/	ſpe-	2e\	-em
=81-	=81-	=81-	=81-	=81-	=81-	=81-	=81-
*	*	*lig	*	*	*	*	*
0ryy	.	1F	tu-	2D/	-ci-	2d\	.
.	.	.	.	1F	-em	2c/	.
.	.	1G	.	.	.	2.B-/	tu-
.	.	.	.	2E/	tu-	.	.
.	.	.	.	.	.	4c/	.
*	*	*Xlig	*	*	*	*	*
=82-	=82-	=82-	=82-	=82-	=82-	=82-	=82-
*	*	*lig	*	*	*	*	*
0ryy	.	1A	-am	2F/	-am,	4d\	.
*	*	*	*	*	*	*custos:f	*
.	.	.	.	.	.	4e\	.
*	*	*	*	*	*ij	*	*
*	*	*	*	*	*	*xywh-#111:1461,2149,4200,758	*
!	!	!	!	!	!	!LO:LB:g=original	!
.	.	.	.	1c	ſpe-	1f	.
.	.	1G	.	.	.	.	.
.	.	.	.	2B-\	.	2e\	-am
*	*	*Xlig	*	*	*	*	*
=83-	=83-	=83-	=83-	=83-	=83-	=83-	=83-
*	*	*lig	*	*	*	*	*
0ryy	.	1A	.	2.A/	-ci-	2f\	.
*	*	*	*	*	*	*	*ij
.	.	.	.	.	.	4F/	ſpe-
.	.	.	.	4G/	.	4G/	.
.	.	1c	.	2F/	.	4A/	-ci-
.	.	.	.	.	.	4B-/	.
.	.	.	.	2E/	.	1c\	-em
*	*	*Xlig	*	*	*	*	*
=84-	=84-	=84-	=84-	=84-	=84-	=84-	=84-
*	*	*lig	*	*	*	*	*
0ryy	.	1d	.	1D	.	.	.
.	.	.	.	.	.	2B-/	tu-
.	.	1e	.	2C/	-em	1c	-am
.	.	.	.	2c\	tu-	.	.
*	*	*Xlig	*	*	*	*	*
=85-	=85-	=85-	=85-	=85-	=85-	=85-	=85-
*	*	*lig	*	*	*	*	*
!	!	!LO:N:acc=#	!	!	!	!	!
!	!	!LO:TX:b:t=P:problem=# below	!	!	!	!	!
0ryy	.	1Bn	.	2d\	.	2r	.
*	*	*	*	*custos:c	*	*	*
.	.	.	.	1e	.	1g	ſpe-
.	.	1c	.	.	.	.	.
*	*	*	*	*xywh-#297:1544,2912,4061,819	*	*	*
!	!	!	!	!LO:LB:g=original	!	!	!
.	.	.	.	1.c\	.	2e\	-ci-
*	*	*Xlig	*	*	*	*	*
=86-	=86-	=86-	=86-	=86-	=86-	=86-	=86-
*	*	*lig	*	*	*	*	*
0ryy	.	1A	.	.	.	2.f\	-em
.	.	.	.	.	.	4e\	.
.	.	1G	.	1d	-am	2d\	tu-
*	*	*	*	*	*Xij	*	*
.	.	.	.	.	.	4g\	.
.	.	.	.	.	.	4f\	.
*	*	*Xlig	*	*	*	*	*
=87-	=87-	=87-	=87-	=87-	=87-	=87-	=87-
*	*	*lig	*	*	*	*	*
0ryy	.	1B-X	.	1r	.	4e\	.
*	*	*	*	*	*	*custos:e	*
.	.	.	.	.	.	4d\	.
*	*	*	*	*	*	*xywh-#111:1490,2873,3140,822	*
!	!	!	!	!	!	!LO:LB:g=original	!
.	.	.	.	.	.	2e\	.
.	.	1A	.	2r	.	1f	-am
*	*	*	*	*	*	*	*Xij
.	.	.	.	2c\	ſpe-	.	.
*	*	*Xlig	*	*	*	*	*
=88-	=88-	=88-	=88-	=88-	=88-	=88-	=88-
*	*	*custos:C	*	*	*	*	*
0ryy	.	00.F\;	.	2d\	-ci-	2r	.
.	.	.	.	2c\	-em	2c/	ſpe-
.	.	.	.	2B-\	tu-	2d\	-ci-
.	.	.	.	2c\	.	2c/	-em-
=89-	=89-	=89-	=89-	=89-	=89-	=89-	=89-
0ryy	.	.	.	2.d\	.	2.B-/	-tu-
.	.	.	.	4c\	.	4c/	.
.	.	.	.	2B-\	.	2d/	.
.	.	.	.	4A/	.	4c/	.
.	.	.	.	4G/	.	4B-/	.
=90-	=90-	=90-	=90-	=90-	=90-	=90-	=90-
*	*	*	*	*custos:G	*	*	*
0ryy	.	.	.	0A;	-am,	0c;;	-am
=-	=-	=-	=-	=-	=-	=-	=-
*-	*-	*-	*-	*-	*-	*-	*-
!!!system-decoration: [(s1,s2,s3,s4)]
!!!RDF**kern: < = below
!!!RDF**kern: > = above
!!!ENC: Mateusz Solarz
!!!END: 2022-02-24
!!!ENC: Marta Chmielewska
!!!END: 2022-03-14
!!!ENC-iiif: Elżbieta Cabała
!!!END-iiif: 2022-09-03
